icons/glyphs/glyph-alt-usb.svg

<?xml version="1.0" encoding="UTF-8" standalone="no"?><svg height="22" viewBox="0 0 5.8208332 5.8208335" width="22" xmlns="http://www.w3.org/2000/svg"><sodipodi:namedview/><metadata><rdf:RDF><cc:Work><dc:format>image/svg+xml</dc:format><dc:type/><dc:title/></cc:Work></rdf:RDF></metadata><path d="m2.8134822-.00000019-.7604702 1.32706479.5814078-.00196.00697 2.1711845a.22308771.22308771 0 0 0 0 .00588l.0008683.2539982-.7818186-.3245776-.00131-.4141088a.64273176.64273176 0 0 0  .3851422-.5901207.64273176.64273176 0 0 0 -.6447985-.6406596.64273176.64273176 0 0 0 -.64065951.6445806.64273176.64273176 0 0 0  .45419131.6125585l.00174.5376226a.22308771.22308771 0 0 0  .1376738.2054206l1.0691446.4437345.00109.3498468a.64273176.64273176 0 0 0 -.4062643.599706.64273176.64273176 0 0 0  .6447984.64066.64273176.64273176 0 0 0  .6406595-.644799.64273176.64273176 0 0 0 -.4108408-.596656l-.00283-.9218877 1.2562676-.4552801a.22308771.22308771 0 0 0  .1470402-.2104307l-.00109-.3132501.3716303-.00109-.0037-1.1654296-1.1652123.0037.00371 1.1654295.3476687-.00109.0004342.1561893-.9582667.3472328-.0061-1.8596772.5018971-.00175z" fill="#d0d0d0"/></svg>

<?xml version="1.0" encoding="UTF-8" standalone="no"?>
<!-- Created with Inkscape (http://www.inkscape.org/) -->

<svg
   xmlns:dc="http://purl.org/dc/elements/1.1/"
   xmlns:cc="http://creativecommons.org/ns#"
   xmlns:rdf="http://www.w3.org/1999/02/22-rdf-syntax-ns#"
   xmlns:svg="http://www.w3.org/2000/svg"
   xmlns="http://www.w3.org/2000/svg"
   xmlns:sodipodi="http://sodipodi.sourceforge.net/DTD/sodipodi-0.dtd"
   xmlns:inkscape="http://www.inkscape.org/namespaces/inkscape"
   width="22"
   height="22"
   viewBox="0 0 5.8208332 5.8208335"
   version="1.1"
   id="svg8"
   inkscape:version="0.92+devel 15719 custom"
   sodipodi:docname="glyph-alt-usb.svg">
  <defs
     id="defs2" />
  <sodipodi:namedview
     id="base"
     pagecolor="#002466"
     bordercolor="#ffffff"
     borderopacity="0.37647059"
     inkscape:pageopacity="1"
     inkscape:pageshadow="2"
     inkscape:zoom="9.3068183"
     inkscape:cx="11"
     inkscape:cy="11"
     inkscape:document-units="px"
     inkscape:current-layer="svg8"
     inkscape:document-rotation="0"
     showgrid="false"
     inkscape:showpageshadow="false"
     borderlayer="true"
     units="px"
     inkscape:window-width="1920"
     inkscape:window-height="1051"
     inkscape:window-x="0"
     inkscape:window-y="0"
     inkscape:window-maximized="1" />
  <metadata
     id="metadata5">
    <rdf:RDF>
      <cc:Work
         rdf:about="">
        <dc:format>image/svg+xml</dc:format>
        <dc:type
           rdf:resource="http://purl.org/dc/dcmitype/StillImage" />
        <dc:title></dc:title>
      </cc:Work>
    </rdf:RDF>
  </metadata>
  <path
     style="color:#000000;font-style:normal;font-variant:normal;font-weight:normal;font-stretch:normal;font-size:medium;line-height:normal;font-family:sans-serif;font-variant-ligatures:normal;font-variant-position:normal;font-variant-caps:normal;font-variant-numeric:normal;font-variant-alternates:normal;font-variant-east-asian:normal;font-feature-settings:normal;text-indent:0;text-align:start;text-decoration:none;text-decoration-line:none;text-decoration-style:solid;text-decoration-color:#000000;letter-spacing:normal;word-spacing:normal;text-transform:none;writing-mode:lr-tb;direction:ltr;text-orientation:mixed;dominant-baseline:auto;baseline-shift:baseline;text-anchor:start;white-space:normal;shape-padding:0;clip-rule:nonzero;display:inline;overflow:visible;visibility:visible;opacity:1;isolation:auto;mix-blend-mode:normal;color-interpolation:sRGB;color-interpolation-filters:linearRGB;solid-color:#000000;solid-opacity:1;vector-effect:none;fill:#d0d0d0;fill-opacity:1;fill-rule:nonzero;stroke:none;stroke-width:0.44613078;stroke-linecap:butt;stroke-linejoin:miter;stroke-miterlimit:4;stroke-dasharray:none;stroke-dashoffset:0;stroke-opacity:1;color-rendering:auto;image-rendering:auto;shape-rendering:auto;text-rendering:auto;enable-background:accumulate"
     d="M 2.8134822,-1.9162833e-7 2.053012,1.3270646 l 0.5814078,-0.00196 0.00697,2.1711845 a 0.22308771,0.22308771 0 0 0 0,0.00588 L 2.6422581,3.7561673 1.8604395,3.4315897 1.8591295,3.0174809 A 0.64273176,0.64273176 0 0 0 2.2442717,2.4273602 0.64273176,0.64273176 0 0 0 1.5994732,1.7867006 0.64273176,0.64273176 0 0 0 0.95881369,2.4312812 0.64273176,0.64273176 0 0 0 1.413005,3.0438397 l 0.00174,0.5376226 a 0.22308771,0.22308771 0 0 0 0.1376738,0.2054206 l 1.0691446,0.4437345 0.00109,0.3498468 A 0.64273176,0.64273176 0 0 0 2.2163891,5.1801702 0.64273176,0.64273176 0 0 0 2.8611875,5.8208302 0.64273176,0.64273176 0 0 0 3.501847,5.1760312 0.64273176,0.64273176 0 0 0 3.0910062,4.5793752 L 3.0881762,3.6574875 4.3444438,3.2022074 A 0.22308771,0.22308771 0 0 0 4.491484,2.9917767 l -0.00109,-0.3132501 0.3716303,-0.00109 -0.0037,-1.1654296 -1.1652123,0.0037 0.00371,1.1654295 0.3476687,-0.00109 4.342e-4,0.1561893 -0.9582667,0.3472328 -0.0061,-1.8596772 0.5018971,-0.00175 z"
     id="path4500"
     inkscape:connector-curvature="0" />
</svg>
